X:183
T:RVW2/2/183 Deeds of Napoleon
C:Mr. H. Burstow, Horsham, Sussex, 22 December 1904
Z:Transcribed by Simon Furey and Lewis Jones
F:http://www.vwml.org/record/RVW2/1/183
L:1/8
Q:1/4=120
M:6/8
I:linebreak $
K:G
"^(Editorial suggestion  " D | D2 G G2 A |[M:3/4] B2 B2 A(3E/F/G/ |[M:6/8] A2 z z2 D | E2 D E2 F | 
G2 G F2 E |$ B,2 E E2 D | E3 G2 E |"^(a)" E2 D B,2 C | D3 B,2 D |"^(b)" E2 F G2 A |$ 
[M:3/8] G2 B, |[M:6/8] B,2 E E2 E |"^(c)" D3 B,2 G, | B,6 | G,4 z ||$ D | D2 G A2 A | 
[M:3/4] B2 B2 A(3E/F/G/ |[M:6/8] A2 z z2 D | E2 D E2 F | G2 G F2 E |$ B,2 E E2 D | E3 G2 E | 
"^(a) var." D2 B, G,2 B, | D3 B,2 D |"^(b) var." G2 G A2 B |$[M:3/8] G2 B, |[M:6/8] B,2 E E2 E | 
"^(c) var." D2 B, A,2 G, | B,6 | G,4 z |] 






